!!!COM:	Bach, Johann Sebastian
!!!CDT:	1685/02/21/-1750/07/28/
!!!OTL@@DE:	O Ewigkeit, du Donnerwort
!!!SCT:	BWV 20/7,11
!!!PC#:	26
!!!AGN:	chorale
**kern	**kern	**kern	**kern
*ICvox	*ICvox	*ICvox	*ICvox
*Ibass	*Itenor	*Ialto	*Isoprn
*I"Bass	*I"Tenor	*I"Alto	*I"Soprano
*>[A,A,B]	*>[A,A,B]	*>[A,A,B]	*>[A,A,B]
*>norep[A,B]	*>norep[A,B]	*>norep[A,B]	*>norep[A,B]
*>A	*>A	*>A	*>A
*clefF4	*clefGv2	*clefG2	*clefG2
*k[b-]	*k[b-]	*k[b-]	*k[b-]
*F:	*F:	*F:	*F:
*M4/4	*M4/4	*M4/4	*M4/4
*met(c)	*met(c)	*met(c)	*met(c)
*MM100	*MM100	*MM100	*MM100
4F	8AL	4c	8fL
.	8B-J	.	8gJ
=1	=1	=1	=1
4F	4c	4f	4a
4G	4B-	4e	4b-
4A	8AL	4f	4cc
.	8cJ	.	.
4F	4f	4a	4cc
=2	=2	=2	=2
4B-	4f	8b-L	4dd
.	.	8aJ	.
4c	4c	4g	4ee
4F;	4c;	4a;	4ff;
8FL	4A	4c	8fL
8EJ	.	.	8gJ
=3	=3	=3	=3
4D	4d	4f	4a
8CL	4d	[4g	4b-
8BB-J	.	.	.
4AA	8cL	4g]	4cc
.	8B-J	.	.
4D	4A	[4f	4cc
=4	=4	=4	=4
4GG	4B-	8fL]	4b-
.	.	8eJ	.
8AAL	4c	4f	4a
8BB-J	.	.	.
4C;	4c;	4e;	4g;
4C#	4A	[4e	4a
=5	=5	=5	=5
8DL	4A	4e]	4f
8E	.	.	.
8F	4A	4d	4f
8DJ	.	.	.
4G	4G	8dL	4b-
.	.	8eJ	.
8DL	4A	[4f	4a
8CnXJ	.	.	.
=6	=6	=6	=6
4BB-	4d	4f]	2g
4C	8cL	4e	.
.	8B-J	.	.
4FF;	4A;	4c;	4f;
=:|!	=:|!	=:|!	=:|!
*>B	*>B	*>B	*>B
4F	4A	4f	4cc
=7	=7	=7	=7
4E	4B-	4g	4g
4E-	4c	4g	4a
4D	4d	4f#	4b-
4C#	4e	[4g	4b-
=8	=8	=8	=8
4D	8AL	4g]	4a
.	8B-J	.	.
4D	4c	4f#	4a
4GG;	4B-;	4d;	4g;
4AA	4c	4f	4cc
=9	=9	=9	=9
4BB-	8B-L	4f	4dd
.	8AJ	.	.
4C	4G	8ccL	4ee
.	.	8b-J	.
8DL	8FL	8aL	4ff
8EJ	8G	8gJ	.
4F	8A	[4f	4a
.	8B-J	.	.
=10	=10	=10	=10
4C	8cL	4f]	4g
.	8GJ	.	.
4C	8cL	4e	4g
.	8B-J	.	.
4FF;	4A;	4c;	4f;
==	==	==	==
*-	*-	*-	*-
!!!hum2abc: -Q ''
!!!title: @{PC#}. @{OTL@@DE}
!!!YOR1: 371 vierstimmige Choralges&auml;nge von Johann Sebastian Bach, 
!!!YOR2: 4th ed. by Alfred D&ouml;rffel (Leipzig: Breitkopf und H&auml;rtel, 
!!!YOR2: c.1875). 178 pp. Plate "V.A.10".  reprint: J.S. Bach, 371 Four-Part 
!!!YOR4: Chorales (New York: Associated Music Publishers, Inc., c.1940).
!!!SMS: B&H, 4th ed, Alfred D&ouml;rffel, c.1875, plate V.A.10
!!!EED:  Craig Stuart Sapp
!!!EEV:  2009/05/22
